X: 18147
T: Humours Of Clonmult, The
R: slide
M: 12/8
K: Dmajor
Add d2 e f3 fef|g3 fed B3 B2 A|
Bee e2 f edc a2 g|1 fed cBc d3 dcB:|2 fed cBc d3 d2 e||
faa a2 f d3 def|e2 A d2 e f2 e d2 e|
faa a2 f d3 def|1 e2 d f2 e d3 d2 e:|2 e2 d f2 e d3 d3||

